src/assets/icons/edit.svg

<svg xmlns="http://www.w3.org/2000/svg" width="24" height="24" viewBox="0 0 24 24"><path d="M7 22v-2h6v2h-6zm7.311-7.662l9.689-9.804-4.536-4.534-9.69 9.802 4.537 4.536zm-7.311-6.338h1.743l1.978-2h-3.721v2zm11 8h2v-4.573l-2 2.023v2.55zm-9.576-4.718l-1.424 5.718 5.826-1.318-4.402-4.4zm-6.424-1.282v-2h3v-2h-5v4h2zm16 8v2h-3v2h5v-4h-2zm-13 2h-3v-2h-2v4h5v-2zm-5-4h2v-4h-2v4z"/></svg>

<svg xmlns="http://www.w3.org/2000/svg" width="24" height="24"><path d="M7 22v-2h6v2H7zm7.311-7.662L24 4.534 19.464 0l-9.69 9.802 4.537 4.536zM7 8h1.743l1.978-2H7v2zm11 8h2v-4.573l-2 2.023V16zm-9.576-4.718L7 17l5.826-1.318-4.402-4.4zM2 10V8h3V6H0v4h2zm16 8v2h-3v2h5v-4h-2zM5 20H2v-2H0v4h5v-2zm-5-4h2v-4H0v4z"/></svg>
